X: 30930
T: Over The Moor To Peggy
R: reel
M: 4/4
K: Gmajor
d2BG dG~G2|dGBG ABce|d2BG DGBd|cBAB c2Bc|
d2BG DG~G2|DGBG ABce|d2BG DGBd|cBAB c2 (3ABc||
|:dg~g2 dfec|dg~g2 ABcA|dg~g2 defd|cBAB c2Bc:|
d2BG DG~G2|DGBG ABce|d2BG DGBd|cBAB ~c3e|
d2BG DGBG|DGBG ABce|d2BG DGBd|cBAB c2 (3ABc||
d2BG DG~G2|DGBG ~c3e|d2BG DGBd|cBAB cege|
d2BG DG~G2|DGBG ~c3e|d2BG DGBG|AF~F2 ABcA||

